icons/folder_type_changesets.svg

<svg xmlns="http://www.w3.org/2000/svg" xmlns:xlink="http://www.w3.org/1999/xlink" data-name="Layer 1" viewBox="0 0 32 32"><defs><linearGradient id="a" x1="303.46" x2="291.69" y1="-401.7" y2="-386" gradientTransform="matrix(1 0 0 -1 -281.64 -372.94)" gradientUnits="userSpaceOnUse"><stop offset="0" stop-color="#001b33"/><stop offset="1" stop-color="#006dcc"/></linearGradient><linearGradient xlink:href="#a" id="c" x1="300.45" x2="288.67" y1="-403.96" y2="-388.26"/><linearGradient id="b" x1="298.46" x2="310.24" y1="-401.67" y2="-385.97" gradientTransform="matrix(1 0 0 -1 -281.64 -372.94)" gradientUnits="userSpaceOnUse"><stop offset="0" stop-color="#0089d6"/><stop offset="1" stop-color="#6cf"/></linearGradient><linearGradient xlink:href="#b" id="d" x1="301.47" x2="313.25" y1="-403.93" y2="-388.23"/></defs><path d="M27.5 5.5h-9.3l-2.1 4.2H4.4v16.8h25.2v-21Zm0 4.2h-8.2l1.1-2.1h7.1Z" style="fill:#5799b5"/><path d="M19.94 22.32a7.84 7.84 0 0 0-7.85-7.85H8.16A7.86 7.86 0 0 0 16 22.32Z" style="fill:url(#a)"/><path d="M19.94 22.32a7.85 7.85 0 0 1-7.85 7.85h-1.57a7.84 7.84 0 0 1 7.85-7.85Z" style="fill:url(#c)"/><path d="M18.68 22.32a7.85 7.85 0 0 1 7.85-7.85h3.93a7.86 7.86 0 0 1-7.85 7.85Z" style="fill:url(#b)"/><path d="M18.68 22.32a7.86 7.86 0 0 0 7.85 7.85h1.57a7.84 7.84 0 0 0-7.85-7.85Z" style="fill:url(#d)"/><path d="M19.31 19.24a7.84 7.84 0 0 1 0 6.16 7.84 7.84 0 0 1 0-6.16Z" style="fill:#08c"/></svg>

<svg id="Layer_1" data-name="Layer 1" xmlns="http://www.w3.org/2000/svg" xmlns:xlink="http://www.w3.org/1999/xlink" viewBox="0 0 32 32"><defs><linearGradient id="linear-gradient" x1="303.46" y1="-401.7" x2="291.69" y2="-386" gradientTransform="matrix(1, 0, 0, -1, -281.64, -372.94)" gradientUnits="userSpaceOnUse"><stop offset="0" stop-color="#001b33"/><stop offset="1" stop-color="#006dcc"/></linearGradient><linearGradient id="linear-gradient-2" x1="300.45" y1="-403.96" x2="288.67" y2="-388.26" xlink:href="#linear-gradient"/><linearGradient id="linear-gradient-3" x1="298.46" y1="-401.67" x2="310.24" y2="-385.97" gradientTransform="matrix(1, 0, 0, -1, -281.64, -372.94)" gradientUnits="userSpaceOnUse"><stop offset="0" stop-color="#0089d6"/><stop offset="1" stop-color="#6cf"/></linearGradient><linearGradient id="linear-gradient-4" x1="301.47" y1="-403.93" x2="313.25" y2="-388.23" xlink:href="#linear-gradient-3"/></defs><path d="M27.5,5.5H18.2L16.1,9.7H4.4V26.5H29.6V5.5Zm0,4.2H19.3l1.1-2.1h7.1Z" style="fill:#5799b5"/><path d="M19.94,22.32a7.84,7.84,0,0,0-7.85-7.85H8.16A7.86,7.86,0,0,0,16,22.32Z" style="fill:url(#linear-gradient)"/><path d="M19.94,22.32a7.85,7.85,0,0,1-7.85,7.85H10.52a7.84,7.84,0,0,1,7.85-7.85Z" style="fill:url(#linear-gradient-2)"/><path d="M18.68,22.32a7.85,7.85,0,0,1,7.85-7.85h3.93a7.86,7.86,0,0,1-7.85,7.85Z" style="fill:url(#linear-gradient-3)"/><path d="M18.68,22.32a7.86,7.86,0,0,0,7.85,7.85H28.1a7.84,7.84,0,0,0-7.85-7.85Z" style="fill:url(#linear-gradient-4)"/><path d="M19.31,19.24a7.84,7.84,0,0,1,0,6.16,7.84,7.84,0,0,1,0-6.16Z" style="fill:#08c"/></svg>
